!!!!SEGMENT: pl-sa--70-a-ii-10--004_pergolesi-giovanni-battista--stabat-mater-quae-moerebat.krn
!!!cenid: 17xx:646
!!!COM: Pergolesi, Giovanni Battista
!!!COM-rismid: pe30002483
!!!CDT: 1710/01/04-1736/03
!!!CNT: Italian
!!!OPR: Stabat Mater
!!!OTL: Quae moerebat
!!!OMV: 004
!!!PDT:
!!!AGN: Sacred
!!!SMS-siglum: PL-SA
!!!SMS-shelfmark: 70/A II 10
!!!SMS-shelfwork: 001-004 M
!!!SMS-variant:
!!!SMS-altvar:
!!!NIFC-rismid: 1001030091
!!!URL-scan: http://bc.bdsandomierz.pl/dlibra/publication/1341/edition/1309/content
!!!ONB-nifc: UWAGA: części Stabat Mater: Stabat Mater, Cuius animam, O quam tristis, Quae moerebat, Quist est homo+Pro peccatis, Vidit suum, Eja mater, Fac ut ardeat, Sancta Mater, Fac ut portem, Inflammatus, Quando corpus+Amen
**kern	**fba	**dynam	**kern	**dynam	**kern	**dynam	**kern	**dynam	**kern	**text	**dynam	**kern
*part6	*	*part6	*part5	*part5	*part4	*part4	*part3	*part3	*part2	*part2	*part2	*part1
*	*	*	*group2	*	*group2	*	*group2	*	*group1	*	*	*group1
*staff6	*	*	*staff5	*	*staff4	*	*staff3	*	*staff2	*staff2	*	*staff1
*Iorgan	*	*	*Iviola	*	*Ivioln	*	*Ivioln	*	*Ialto	*	*	*Ivox
*I"ORGANO	*	*	*I"Alto Viola	*	*I"Violino 2do.	*	*I"Violino 1mo	*	*I"Alto	*	*	*I"Canto
*I'org	*	*	*I'a-vla	*	*I'vl 2	*	*I'vl 1	*	*I'A	*	*	*I'S
*clefF4	*	*	*clefC3	*	*clefG2	*	*clefG2	*	*clefC3	*	*	*clefC1
*k[b-e-a-]	*	*	*k[e-b-a-]	*	*k[e-b-a-]	*	*k[e-b-a-]	*	*k[e-b-]	*	*	*k[b-e-a-]
*E-:	*	*	*E-:	*	*E-:	*	*E-:	*	*E-:	*	*	*E-:
*M2/4	*	*	*M2/4	*	*M2/4	*	*M2/4	*	*M2/4	*	*	*M2/4
=1	=1	=1	=1	=1	=1	=1	=1	=1	=1	=1	=1	=1
!LO:TX:a:i:t=Allegro	!	!	!	!	!LO:TX:b:t=Quemerebat	!	!LO:TX:b:t=Quemmerebat	!	!LO:TX:a:t=24	!	!	!
!LO:TX:b:i:t=Que merebat	!	!	!	!	!LO:TX:a:t=Allo	!	!LO:TX:a:t=Allo	!	!LO:TX:a:t=allo	!	!	!LO:TX:a:t=Quem Merebat \nTacet
!	!	!	!	!	!	!	!	!	!LO:N:vis=00	!	!	!
4E-\	.	.	8r	.	8ee-\	.	8ee-\	.	0r	.	.	2ryy
!	!	!	!LO:TX:a:t=Allo	!	!	!	!	!	!	!	!	!
!	!	!	!LO:TX:b:t=Quemerebat	!	!	!	!	!	!	!	!	!
.	.	.	8g\	.	4ee-\	.	4ee-\	.	.	.	.	.
4E-\	.	.	8r	.	.	.	.	.	.	.	.	.
.	.	.	8g\	.	16ff\LL	.	16ff\LL	.	.	.	.	.
.	.	.	.	.	16gg\JJ	.	16gg\JJ	.	.	.	.	.
=2	=2	=2	=2	=2	=2	=2	=2	=2	=2	=2	=2	=2
4E-\	1	.	8r	.	8ff\	.	8ff\	.	.	.	.	2ryy
.	4	.	8a-\	.	4ff\	.	4ff\	.	.	.	.	.
4E-\	8_	.	8r	.	.	.	.	.	.	.	.	.
!	!	!	!LO:N:vis=8	!	!	!	!	!	!	!	!	!
.	.	.	16a-\	.	16gg\LL	.	16gg\LL	.	.	.	.	.
!	!	!	!LO:N:vis=8	!	!	!	!	!	!	!	!	!
.	.	.	16r	.	16ff\JJ	.	16ff\JJ	.	.	.	.	.
=3	=3	=3	=3	=3	=3	=3	=3	=3	=3	=3	=3	=3
4E-\	.	.	8r	.	8ccc\	.	8aa-\	.	.	.	.	2ryy
.	.	.	8a-\	.	4ccc\	.	4ccc\	.	.	.	.	.
4B-\	7	.	8r	.	.	.	.	.	.	.	.	.
.	.	.	8f\	.	16bb-\LL	.	16bb-\LL	.	.	.	.	.
.	.	.	.	.	16aa-\JJ	.	16aa-\JJ	.	.	.	.	.
=4	=4	=4	=4	=4	=4	=4	=4	=4	=4	=4	=4	=4
4E-\	.	.	8r	.	8gg\	.	8gg\	.	.	.	.	2ryy
.	.	.	8b-\	.	4ff\	.	4ff\	.	.	.	.	.
4r	.	.	8r	.	.	.	.	.	.	.	.	.
.	.	.	8g\	.	16dd\LL	.	16dd\LL	.	.	.	.	.
.	.	.	.	.	16ee-\JJ	.	16ee-\JJ	.	.	.	.	.
=5	=5	=5	=5	=5	=5	=5	=5	=5	=5	=5	=5	=5
!	!	!	!	!	!	!	!	!	!LO:N:vis=00	!	!	!
4E-\	.	.	8r	.	8aa-\	.	8aa-\	.	0r	.	.	2ryy
.	.	.	8a-\	.	4ccc\	.	4ccc\	.	.	.	.	.
4D\	6 5	.	8r	.	.	.	.	.	.	.	.	.
.	.	.	8f\	.	16bb-\LL	.	16bb-\LL	.	.	.	.	.
.	.	.	.	.	16aa-\JJ	.	16aa-\JJ	.	.	.	.	.
=6	=6	=6	=6	=6	=6	=6	=6	=6	=6	=6	=6	=6
4E-\	.	.	8r	.	16gg\LL	.	16gg\LL	.	.	.	.	2ryy
.	.	.	.	.	16ff\J	.	16ff\J	.	.	.	.	.
.	.	.	8g\	.	8ee-\J	.	8ee-\J	.	.	.	.	.
4EE-/	.	.	8r	.	4r	.	4r	.	.	.	.	.
.	.	.	8e-\	.	.	.	.	.	.	.	.	.
=7	=7	=7	=7	=7	=7	=7	=7	=7	=7	=7	=7	=7
!	!	!	!	!	!	!	!LO:TX:a:t=P:problem:mixed beam	!	!	!	!	!
4G\	.	.	8r	.	8b-/L	.	8b-\L	.	.	.	.	2ryy
.	.	.	8b-\	.	8B-/J	.	8B-/J	.	.	.	.	.
4E-\	.	.	8r	.	4B-/	.	4B-/	.	.	.	.	.
.	.	.	8b-\	.	.	.	.	.	.	.	.	.
=8	=8	=8	=8	=8	=8	=8	=8	=8	=8	=8	=8	=8
!	!	!	!	!	!	!	!LO:TX:a:t=P:problem:mixed beam	!	!	!	!	!
4F\	6	.	8r	.	8a-/L	.	8a-\L	.	.	.	.	2ryy
.	.	.	8a-X\	.	8B-/J	.	8A-/J	.	.	.	.	.
4D\	6 5	.	8r	.	4B-/	.	4A-/	.	.	.	.	.
.	.	.	8a-\	.	.	.	.	.	.	.	.	.
=9	=9	=9	=9	=9	=9	=9	=9	=9	=9	=9	=9	=9
!	!	!	!	!	!	!	!	!	!LO:N:vis=00	!	!	!
4E-\	.	.	8r	.	8g/	.	8g/	.	0r	.	.	2ryy
.	.	.	8g\	.	4ee-\	.	4ee-\	.	.	.	.	.
4AAn/	6 5	.	8r	.	.	.	.	.	.	.	.	.
.	.	.	8e-\	.	8g/	.	8g/	.	.	.	.	.
=10	=10	=10	=10	=10	=10	=10	=10	=10	=10	=10	=10	=10
4BB-/	.	.	8e-\L	.	8g/L	.	8g/L	.	.	.	.	2ryy
.	.	.	8d\J	.	8f/J	.	8f/J	.	.	.	.	.
4G\	6	.	8r	.	4r	.	4r	.	.	.	.	.
.	.	.	8g\	.	.	.	.	.	.	.	.	.
!	!	!	!LO:LB:g=original	!	!	!	!	!	!	!	!	!
=11	=11	=11	=11	=11	=11	=11	=11	=11	=11	=11	=11	=11
4A-X\	.	.	8r	.	8cc\	.	8cc\	.	.	.	.	2ryy
.	.	.	8a-\	.	4cc\	.	4cc\	.	.	.	.	.
4F\	6	.	8r	.	.	.	.	.	.	.	.	.
!	!	!	!LO:TX:a:t=bis	!	!	!	!	!	!	!	!	!
.	.	.	8f\	.	8dd\	.	8dd\	.	.	.	.	.
!	!	!	!	!	!	!	!LO:LB:g=original	!	!	!	!	!
=12	=12	=12	=12	=12	=12	=12	=12	=12	=12	=12	=12	=12
4G\	6	.	8r	.	8ee-\	.	8ee-\	.	.	.	.	2ryy
.	.	.	8g\	.	4e-/	.	4e-/	.	.	.	.	.
4E-\	.	.	8r	.	.	.	.	.	.	.	.	.
.	.	.	8e-\	.	8b-/	.	8b-\	.	.	.	.	.
=13	=13	=13	=13	=13	=13	=13	=13	=13	=13	=13	=13	=13
!	!	!	!LO:TX:a:t=P:problem:takty 13-14 zapisane repetycją, adnotacja "bis"	!	!	!	!	!	!LO:N:vis=00	!	!	!
4A-X\	.	.	8ryy	.	8cc\	.	8cc\	.	0r	.	.	2ryy
.	.	.	8a-\yy	.	4cc\	.	4cc\	.	.	.	.	.
4F\	6	.	8ryy	.	.	.	.	.	.	.	.	.
.	.	.	8f\yy	.	8dd\	.	8dd\	.	.	.	.	.
!	!	!	!	!	!LO:LB:g=original	!	!	!	!	!	!	!
=14	=14	=14	=14	=14	=14	=14	=14	=14	=14	=14	=14	=14
4G\	6	.	8ryy	.	8ee-\	.	8ee-\	.	.	.	.	2ryy
.	.	.	8g\yy	.	4e-/	.	4e-/	.	.	.	.	.
4E-\	.	.	8ryy	.	.	.	.	.	.	.	.	.
.	.	.	8e-\yy	.	8b-/	.	8b-/	.	.	.	.	.
=15	=15	=15	=15	=15	=15	=15	=15	=15	=15	=15	=15	=15
!	!	!	!	!	!	!	!	!LO:DY:b:t=p&colon;	!	!	!	!
4F\	6	.	8r	.	8a-/	.	8a-/	p	.	.	.	2ryy
.	.	.	8f\	.	4ff\	.	4ff\	.	.	.	.	.
4E-\	.	.	8r	.	.	.	.	.	.	.	.	.
.	.	.	8f\	.	8a-/	.	8a-/	.	.	.	.	.
=16	=16	=16	=16	=16	=16	=16	=16	=16	=16	=16	=16	=16
4D\	6 5	.	8r	.	8a-/	.	8a-/	.	.	.	.	2ryy
.	.	.	8f\	.	4ff\	.	4ff\	.	.	.	.	.
4r	.	.	8r	.	.	.	.	.	.	.	.	.
.	.	.	8f\	.	8a-/	.	8a-/	.	.	.	.	.
=17	=17	=17	=17	=17	=17	=17	=17	=17	=17	=17	=17	=17
!	!	!	!	!	!	!	!	!	!LO:N:vis=00	!	!	!
4BB-/	.	.	8r	.	8a-/	.	8a-/	.	0r	.	.	2ryy
.	.	.	8f\	.	4aa-\	.	4aa-\	.	.	.	.	.
4D/	.	.	8r	.	.	.	.	.	.	.	.	.
.	.	.	8f\	.	8aa-\	.	8aa-\	.	.	.	.	.
=18	=18	=18	=18	=18	=18	=18	=18	=18	=18	=18	=18	=18
4E-\	.	.	8r	.	8gg\L	.	8gg\L	.	.	.	.	2ryy
.	.	.	8B-/	.	16ff\L	.	16ff\L	.	.	.	.	.
.	.	.	.	.	16gg\JJ	.	16gg\JJ	.	.	.	.	.
4AA-/	6	.	8r	.	8aa-\L	.	8aa-\L	.	.	.	.	.
.	.	.	8c/	.	8ff\J	.	8ff\J	.	.	.	.	.
!LO:LB:g=original	!	!	!	!	!	!	!	!	!	!	!	!
=19	=19	=19	=19	=19	=19	=19	=19	=19	=19	=19	=19	=19
.	.	.	.	.	.	.	8qqff/	.	.	.	.	.
!	!	!	!	!	!	!	!LO:DY:a:t=D	!	!	!	!	!
*	*	*	*	*	*2\right	*	*2\right	*	*	*	*	*
4BB-/	4	.	8r	.	2dd\	.	2dd\	.	.	.	.	2ryy
.	.	.	8B-/	.	.	.	.	.	.	.	.	.
4BB-/	3	.	8r	.	.	.	.	.	.	.	.	.
.	.	.	8A-/	.	.	.	.	.	.	.	.	.
=20	=20	=20	=20	=20	=20	=20	=20	=20	=20	=20	=20	=20
4E-\	.	.	8r	.	8e-/	.	8e-/	.	.	.	.	2ryy
.	.	.	8G/	.	4ee-\	.	4ee-\	.	.	.	.	.
4G\	6	.	8r	.	.	.	.	.	.	.	.	.
!	!	!	!	!	!	!	!LO:SIC:v:s=8ee-	!	!	!	!	!
.	.	.	8g\	.	8ee-\	.	8dd\	.	.	.	.	.
=21	=21	=21	=21	=21	=21	=21	=21	=21	=21	=21	=21	=21
!	!	!	!	!	!LO:TX:a:t=P:problem:mixed beam	!	!LO:TX:a:t=P:problem:mixed beam	!	!LO:N:vis=00	!	!	!
!	!	!	!	!	!	!	!LO:TX:a:t=P:problem:mordent nad kreską taktową	!	!	!	!	!
4A-\	6 -	.	8r	.	8ee-\L	.	8ee-M\L	.	0r	.	.	2ryy
.	.	.	8a-\	.	16f/L	.	16f/L	.	.	.	.	.
.	.	.	.	.	16a-/JJ	.	16a-/JJ	.	.	.	.	.
4B-\	.	.	8r	.	8g/L	.	8g/L	.	.	.	.	.
.	.	.	8b-\	.	16d/L	.	16d/L	.	.	.	.	.
.	.	.	.	.	16f/JJ	.	16f/JJ	.	.	.	.	.
=22	=22	=22	=22	=22	=22	=22	=22	=22	=22	=22	=22	=22
!	!	!	!	!	!	!	!LO:TX:a:t=P:problem:takty 22-23 zapisane repetycją	!	!	!	!	!
4c\	.	.	8r	.	8e-/	.	8e-/yy	.	.	.	.	2ryy
.	.	.	8cc\	.	4ee-\	.	4ee-\yy	.	.	.	.	.
4G\	6	.	8r	.	.	.	.	.	.	.	.	.
!	!	!	!	!	!	!	!LO:SIC:v:s=8ee-	!	!	!	!	!
.	.	.	8g\	.	8ee-\	.	8dd\yy	.	.	.	.	.
=23	=23	=23	=23	=23	=23	=23	=23	=23	=23	=23	=23	=23
!	!	!	!	!	!LO:TX:a:t=P:problem:mixed beam	!	!LO:TX:a:t=P:problem:mixed beam	!	!	!	!	!
!	!	!	!	!	!	!	!LO:TX:a:t=P:problem:mordent nad kreską taktową	!	!	!	!	!
4A-\	6 3	.	8r	.	8ee-\L	.	8ee-M\Lyy	.	.	.	.	2ryy
.	.	.	8a-\	.	16f/L	.	16f/Lyy	.	.	.	.	.
.	.	.	.	.	16a-/JJ	.	16a-/JJyy	.	.	.	.	.
4B-\	.	.	8r	.	8g/L	.	8g/Lyy	.	.	.	.	.
.	.	.	8b-\	.	16d/L	.	16d/Lyy	.	.	.	.	.
.	.	.	.	.	16f/JJ	.	16f/JJyy	.	.	.	.	.
=24	=24	=24	=24	=24	=24	=24	=24	=24	=24	=24	=24	=24
4E-\	.	.	4e-\	.	8e-/L	.	8e-/L	.	.	.	.	2ryy
.	.	.	.	.	8B-/J	.	8B-/J	.	.	.	.	.
!	!	!	!	!LO:DY:b	!	!	!	!	!	!	!	!
4r	.	.	4r	p	4G/	.	4G/	.	.	.	.	.
=25	=25	=25	=25	=25	=25	=25	=25	=25	=25	=25	=25	=25
!	!	!LO:DY:b	!	!	!	!	!	!LO:DY:b	!LO:SIC:v:l:s=Quae	!	!	!
4E-\	.	p	4e-\	.	8r	.	8r	p	8e-\	Quem	.	2ryy
!	!	!	!	!	!	!	!	!	!LO:SIC:v:l:s=moe-	!	!	!
.	.	.	.	.	8g/	.	8b-\	.	4e-\	me-	.	.
4E-\	.	.	4e-\	.	8r	.	8r	.	.	.	.	.
.	.	.	.	.	8g/	.	8b-\	.	(16f\LL	.	.	.
.	.	.	.	.	.	.	.	.	16g\JJ)	.	.	.
=26	=26	=26	=26	=26	=26	=26	=26	=26	=26	=26	=26	=26
4E-\	7	.	4e-\	.	8r	.	8r	.	8f\	-re-	.	2ryy
.	.	.	.	.	8f/	.	8a-/	.	4f\	-bat	.	.
4E-\	8	.	4e-\	.	8r	.	8r	.	.	.	.	.
.	.	.	.	.	8f/	.	8a-/	.	(16g\LL	.	.	.
.	.	.	.	.	.	.	.	.	16f\JJ)	.	.	.
!	!	!	!	!	!LO:LB:g=original	!	!	!	!	!	!	!
=27	=27	=27	=27	=27	=27	=27	=27	=27	=27	=27	=27	=27
4E-\	.	.	4d\	.	8r	.	8r	.	8cc\	et	.	2ryy
.	.	.	.	.	8a-/	.	8cc\	.	4cc\	.	.	.
4B-\	7	.	4b-\	.	8r	.	8r	.	.	.	.	.
.	.	.	.	.	8f/	.	8a-/	.	16b-\LL	do-	.	.
!	!	!	!	!	!	!	!	!	!LO:SIC:v:s=16a-	!	!	!
.	.	.	.	.	.	.	.	.	16a\JJ	.	.	.
!	!	!	!LO:LB:g=original	!	!	!	!	!	!	!	!	!
=28	=28	=28	=28	=28	=28	=28	=28	=28	=28	=28	=28	=28
4E-\	.	.	4e-\	.	8r	.	8r	.	(8g\	-le-	.	2ryy
.	.	.	.	.	8B-/	.	8g/	.	4f\)	.	.	.
4E-\	.	.	4e-\	.	8r	.	8r	.	.	.	.	.
.	.	.	.	.	8B-/	.	8g/	.	16d\LL	-bat	.	.
.	.	.	.	.	.	.	.	.	16e-\JJ	.	.	.
!	!	!	!	!	!	!	!LO:LB:g=original	!	!	!	!	!
=29	=29	=29	=29	=29	=29	=29	=29	=29	=29	=29	=29	=29
!	!	!	!	!	!LO:TX:a:t=P:problem:takty 29-30 zapisane repetycją	!	!	!	!	!	!	!
4E-\	2	.	4e-\	.	8ryy	.	8r	.	8cc\	et	.	2ryy
.	.	.	.	.	8a-/yy	.	8cc\	.	4cc\	do-	.	.
4D\	6 5	.	4d\	.	8ryy	.	8r	.	.	.	.	.
.	.	.	.	.	8f/yy	.	8a-/	.	16b-\LL	.	.	.
!	!	!	!	!	!	!	!	!	!LO:SIC:v:s=16a-	!	!	!
.	.	.	.	.	.	.	.	.	16a\JJ	.	.	.
=30	=30	=30	=30	=30	=30	=30	=30	=30	=30	=30	=30	=30
4E-\	.	.	4e-\	.	8ryy	.	8r	.	16g\LL	-le-	.	2ryy
.	.	.	.	.	.	.	.	.	16f\JJ	.	.	.
.	.	.	.	.	8B-/yy	.	8g/	.	8e-\	-bat	.	.
4E-\	.	.	4e-\	.	8ryy	.	8r	.	4r	.	.	.
.	.	.	.	.	8B-/yy	.	8g/	.	.	.	.	.
=31	=31	=31	=31	=31	=31	=31	=31	=31	=31	=31	=31	=31
4G\	6	.	4g\	.	8r	.	8r	.	8b-\	et	.	2ryy
.	.	.	.	.	8g/	.	8b-\	.	4.b-\	tre-	.	.
4E-\	.	.	4e-\	.	8r	.	8r	.	.	.	.	.
.	.	.	.	.	8g/	.	8b-\	.	.	.	.	.
=32	=32	=32	=32	=32	=32	=32	=32	=32	=32	=32	=32	=32
!	!	!	!	!	!	!	!	!	!LO:SIC:v:s=8a-	!	!	!
4F\	6	.	4f\	.	8r	.	8r	.	8a\	-me-	.	2ryy
!	!	!	!	!	!	!	!	!	!LO:SIC:v:s=4.a-	!	!	!
.	.	.	.	.	8f/	.	8a-/	.	4.a\	-bat	.	.
4D\	6 5	.	4d\	.	8r	.	8r	.	.	.	.	.
.	.	.	.	.	8f/	.	8a-/	.	.	.	.	.
=33	=33	=33	=33	=33	=33	=33	=33	=33	=33	=33	=33	=33
4E-\	.	.	4e-\	.	8r	.	8r	.	8g\	cum	.	2ryy
.	.	.	.	.	8e-/	.	8g/	.	4ee-\	.	.	.
4AAn/	7	.	4An/	.	8r	.	8r	.	.	.	.	.
.	.	.	.	.	8e-/	.	8g/	.	8g\	vi-	.	.
=34	=34	=34	=34	=34	=34	=34	=34	=34	=34	=34	=34	=34
4BB-/	.	.	4B-/	.	8r	.	8r	.	8g\	-de-	.	2ryy
.	.	.	.	.	8d/	.	8f/	.	8f\	-bat	.	.
4BB-/	.	.	4B-/	.	8r	.	8r	.	4r	.	.	.
.	.	.	.	.	8d/	.	8f/	.	.	.	.	.
!	!	!	!	!	!	!	!	!	!LO:LB:g=original	!	!	!
=35	=35	=35	=35	=35	=35	=35	=35	=35	=35	=35	=35	=35
4D\	6 4	.	4d\	.	8r	.	8r	.	4b-\	na-	.	2ryy
.	.	.	.	.	8b-\	.	8b-\	.	.	.	.	.
4En\	n3	.	4en\	.	8r	.	8r	.	4b-\	-ti	.	.
.	.	.	.	.	8b-\	.	8b-\	.	.	.	.	.
=36	=36	=36	=36	=36	=36	=36	=36	=36	=36	=36	=36	=36
4F\	4	.	4f\	.	8r	.	8r	.	4.b-\	poe-	.	2ryy
.	.	.	.	.	8b-\	.	8b-\	.	.	.	.	.
4FF/	n	.	4F/	.	8r	.	8r	.	.	.	.	.
!	!	!	!	!	!	!	!LO:TX:a:t=P:problem:kasownik przed pauzą	!	!	!	!	!
.	.	.	.	.	8an\	.	8an\	.	8an\	-nas	.	.
=37	=37	=37	=37	=37	=37	=37	=37	=37	=37	=37	=37	=37
4GG/	6	.	4G/	.	8r	.	8r	.	4e-\	poe-	.	2ryy
.	.	.	.	.	8e-/	.	8e-/	.	.	.	.	.
4AAn/	n	.	4An/	.	8r	.	8r	.	4e-\	-nas	.	.
.	.	.	.	.	8e-/	.	8e-/	.	.	.	.	.
!LO:LB:g=original	!	!	!	!	!	!	!	!	!	!	!	!
=38	=38	=38	=38	=38	=38	=38	=38	=38	=38	=38	=38	=38
!LO:TX:a:t=P:problem:w partii vl1 o takt za dużo	!	!	!LO:TX:a:t=P:problem:w partii vl1 o takt za dużo	!	!LO:TX:a:t=P:problem:w partii vl1 o takt za dużo	!	!	!	!LO:TX:a:t=P:problem:w partii vl1 o takt za dużo	!	!	!
2ryy	.	.	2ryy	.	2ryy	.	8r	.	2ryy	.	.	2ryy
.	.	.	.	.	.	.	8e-/	.	.	.	.	.
.	.	.	.	.	.	.	8r	.	.	.	.	.
.	.	.	.	.	.	.	8e-/	.	.	.	.	.
=39	=39	=39	=39	=39	=39	=39	=39	=39	=39	=39	=39	=39
4BB-/	.	.	4B-/	.	8r	.	8r	.	8.e-\	in-	.	2ryy
.	.	.	.	.	8e-/	.	8e-/	.	.	.	.	.
.	.	.	.	.	.	.	.	.	16e-\	-cli-	.	.
4D/	6	.	4d/	.	8r	.	8r	.	4d\	-ti	.	.
.	.	.	.	.	8d/	.	8d/	.	.	.	.	.
=40	=40	=40	=40	=40	=40	=40	=40	=40	=40	=40	=40	=40
4E-\	.	.	4e-\	.	8r	.	8r	.	8g\	et	.	2ryy
.	.	.	.	.	8gg\	.	8gg\	.	4g\	tre-	.	.
4C/	6\	.	4c\	.	8r	.	8r	.	.	.	.	.
!	!	!	!	!	!LO:SIC:v:s=8aan	!	!	!	!	!	!	!
.	.	.	.	.	8aa-\	.	8aan\	.	8an\	.	.	.
!	!	!	!	!	!LO:LB:g=original	!	!	!	!	!	!	!
=41	=41	=41	=41	=41	=41	=41	=41	=41	=41	=41	=41	=41
4D\	6	.	4d\	.	8r	.	8r	.	8b-\	-me-	.	2ryy
.	.	.	.	.	8bb-\	.	8bb-\	.	4b-\	-bat	.	.
4BB-/	.	.	4B-\	.	8r	.	8r	.	.	.	.	.
.	.	.	.	.	8ff\	.	8ff\	.	8f\	.	.	.
=42	=42	=42	=42	=42	=42	=42	=42	=42	=42	=42	=42	=42
4E-\	.	.	4e-\	.	8r	.	8r	.	8g\	cum	.	2ryy
.	.	.	.	.	8gg\	.	8gg\	.	(4g\	vi-	.	.
4C/	6\	.	4c\	.	8r	.	8r	.	.	.	.	.
!	!	!	!	!	!	!	!LO:LB:g=original	!	!LO:SIC:v:s=8an	!	!	!
.	.	.	.	.	8aan\	.	8aan\	.	8a-\)	.	.	.
=43	=43	=43	=43	=43	=43	=43	=43	=43	=43	=43	=43	=43
4D/	6	.	4d\	.	8r	.	8r	.	8b-\	-de-	.	2ryy
.	.	.	.	.	8bb-\	.	8bb-\	.	4.b-\	-bat	.	.
4BB-/	.	.	4B-\	.	8r	.	8r	.	.	.	.	.
.	.	.	.	.	8bb-\	.	8bb-\	.	.	.	.	.
=44	=44	=44	=44	=44	=44	=44	=44	=44	=44	=44	=44	=44
4C/	6\	.	4c/	.	8r	.	8r	.	4e-\	na-	.	2ryy
.	.	.	.	.	8c/	.	8e-/	.	.	.	.	.
4BB-/	.	.	4B-/	.	8r	.	8r	.	4e-\	-ti	.	.
.	.	.	.	.	8c/	.	8e-/	.	.	.	.	.
=45	=45	=45	=45	=45	=45	=45	=45	=45	=45	=45	=45	=45
!LO:SIC:v:s=4AAn	!	!	!	!	!	!	!	!	!	!	!	!
4AA-/	6	.	4An/	.	8r	.	8r	.	4e-\	poe-	.	2ryy
.	.	.	.	.	8c/	.	8e-/	.	.	.	.	.
4GG/	.	.	4G/	.	8r	.	8r	.	4e-\	-nas	.	.
.	.	.	.	.	8c/	.	8e-/	.	.	.	.	.
=46	=46	=46	=46	=46	=46	=46	=46	=46	=46	=46	=46	=46
4FF/	.	.	4F/	.	8r	.	8r	.	4ee-\	na-	.	2ryy
.	.	.	.	.	8cc\	.	8ee-\	.	.	.	.	.
4AAn/	6 5	.	4An/	.	8r	.	8r	.	4ee-\	-ti	.	.
.	.	.	.	.	8cc\	.	8ee-\	.	.	.	.	.
=47	=47	=47	=47	=47	=47	=47	=47	=47	=47	=47	=47	=47
4BB-/	.	.	4B-/	.	8r	.	8r	.	8dd\L	poe-	.	2ryy
.	.	.	.	.	8b-\	.	8dd\	.	16cc\L	.	.	.
.	.	.	.	.	.	.	.	.	16dd\JJ	.	.	.
4E-\	.	.	4e-\	.	8r	.	8r	.	8ee-\	-nas	.	.
.	.	.	.	.	8b-\	.	8ee-\	.	16dd\LL	.	.	.
.	.	.	.	.	.	.	.	.	16cc\JJ	.	.	.
=48	=48	=48	=48	=48	=48	=48	=48	=48	=48	=48	=48	=48
.	.	.	.	.	.	.	.	.	8qqb-/	.	.	.
4F\	n	.	4f\	.	8r	.	8r	.	4.an\	in-	.	2ryy
.	.	.	.	.	8an/	.	8cc\	.	.	.	.	.
4FF/	.	.	4F/	.	8r	.	8r	.	.	.	.	.
.	.	.	.	.	8a/	.	8cc\	.	8a\	-cli-	.	.
!	!	!	!LO:LB:g=original	!	!	!	!	!	!LO:LB:g=original	!	!	!
=49	=49	=49	=49	=49	=49	=49	=49	=49	=49	=49	=49	=49
4BB-/	.	.	4B-/	.	8r	.	8r	.	4b-\	-ti	.	2ryy
.	.	.	.	.	8b-/	.	8b-\	.	.	.	.	.
4D/	6	.	4d\	.	8r	.	8r	.	4r	.	.	.
.	.	.	.	.	8f/	.	8f/	.	.	.	.	.
=50	=50	=50	=50	=50	=50	=50	=50	=50	=50	=50	=50	=50
4E-\	.	.	4e-\	.	8r	.	8r	.	8g\	et	.	2ryy
.	.	.	.	.	8g/	.	8g/	.	4g\	tre-	.	.
4C/	6\	.	4c\	.	8r	.	8r	.	.	.	.	.
!	!	!	!	!	!	!	!LO:TX:a:t=P:problem:kasownik przed pauzą	!	!	!	!	!
.	.	.	.	.	8an/	.	8an/	.	8an\	.	.	.
!	!	!	!	!	!LO:LB:g=original	!	!	!	!	!	!	!
=51	=51	=51	=51	=51	=51	=51	=51	=51	=51	=51	=51	=51
4D\	6	.	4d\	.	8r	.	8r	.	8b-\	-me-	.	2ryy
.	.	.	.	.	8b-/	.	8b-/	.	4b-\	-bat	.	.
4BB-\	.	.	4B-\	.	8r	.	8r	.	.	.	.	.
.	.	.	.	.	8f/	.	8f/	.	8f\	.	.	.
=52	=52	=52	=52	=52	=52	=52	=52	=52	=52	=52	=52	=52
4E-\	.	.	4e-\	.	8r	.	8r	.	8g\	cum	.	2ryy
.	.	.	.	.	8g/	.	8g/	.	4g\	vi-	.	.
4C\	6\	.	4c\	.	8r	.	8r	.	.	.	.	.
!	!	!	!	!	!	!	!	!	!LO:SIC:v:s=8an	!	!	!
.	.	.	.	.	8an/	.	8an/	.	8a\	.	.	.
=53	=53	=53	=53	=53	=53	=53	=53	=53	=53	=53	=53	=53
4D\	.	.	4d\	.	8r	.	8r	.	8b-\	-de-	.	2ryy
.	.	.	.	.	8b-\	.	8b-\	.	4.b-\	-bat	.	.
4BB-/	6	.	4B-\	.	8r	.	8r	.	.	.	.	.
.	.	.	.	.	8b-\	.	8b-\	.	.	.	.	.
=54	=54	=54	=54	=54	=54	=54	=54	=54	=54	=54	=54	=54
4C/	6	.	4c/	.	8r	.	8r	.	4e-\	na-	.	2ryy
.	.	.	.	.	8c/	.	8e-/	.	.	.	.	.
4BB-/	.	.	4B-/	.	8r	.	8r	.	4e-\	-ti	.	.
.	.	.	.	.	8c/	.	8e-/	.	.	.	.	.
=55	=55	=55	=55	=55	=55	=55	=55	=55	=55	=55	=55	=55
4AAn/	6 5	.	4An/	.	8r	.	8r	.	4e-\	poe-	.	2ryy
.	.	.	.	.	8c/	.	8e-/	.	.	.	.	.
4GG/	6	.	4G/	.	8r	.	8r	.	4e-\	-nas	.	.
.	.	.	.	.	8c/	.	8e-/	.	.	.	.	.
=56	=56	=56	=56	=56	=56	=56	=56	=56	=56	=56	=56	=56
4FF/	.	.	4F/	.	8r	.	8r	.	4ee-\	na-	.	2ryy
!	!	!	!	!	!	!	!	!LO:DY:b:t=for	!	!	!	!
.	.	.	.	.	8cc\	.	8ee-\	f	.	.	.	.
4AAn/	.	.	4An/	.	8r	.	8r	.	4ee-\	-ti	.	.
!	!	!	!	!	!	!	!LO:TX:b:t=Citiſsime	!	!	!	!	!
.	.	.	.	.	8cc\	.	8ee-\	.	.	.	.	.
!LO:LB:g=original	!	!	!	!	!	!	!LO:PB:g=original	!	!	!	!	!
=57	=57	=57	=57	=57	=57	=57	=57	=57	=57	=57	=57	=57
4BB-/	.	.	4B-/	.	8r	.	8r	.	8dd\L	po-	.	2ryy
.	.	.	.	.	8b-\	.	8dd\	.	16cc\L	-e-	.	.
.	.	.	.	.	.	.	.	.	16dd\JJ	.	.	.
4E-\	.	.	4e-\	.	8r	.	8r	.	8ee-\	-nas	.	.
.	.	.	.	.	8b-\	.	8ee-\	.	16dd\LL	.	.	.
.	.	.	.	.	.	.	.	.	16cc\JJ	.	.	.
=58	=58	=58	=58	=58	=58	=58	=58	=58	=58	=58	=58	=58
!	!	!	!	!	!	!	!	!	!LO:N:vis=8.	!	!	!
.	.	.	.	.	.	.	.	.	8qqb-/	.	.	.
4F\	n	.	4f\	.	8r	.	8r	.	4.an\	in-	.	2ryy
.	.	.	.	.	8b-\	.	8cc\	.	.	.	.	.
4FF/	.	.	4F/	.	8r	.	8r	.	.	.	.	.
!	!	!	!	!	!	!	!	!	!LO:N:vis=16	!	!	!
.	.	.	.	.	8an/	.	8cc\	.	8b-\	-cli-	.	.
=59	=59	=59	=59	=59	=59	=59	=59	=59	=59	=59	=59	=59
4BB-/	.	.	4B-/	.	8b-/	.	8b-/	.	4b-\	-ti	.	2ryy
.	.	.	.	.	4bb-\	.	4bb-\	.	.	.	.	.
4D\	6	.	4d/	.	.	.	.	.	4r	.	.	.
.	.	.	.	.	8bb-\	.	[8bb-\	.	.	.	.	.
=60	=60	=60	=60	=60	=60	=60	=60	=60	=60	=60	=60	=60
!	!	!	!	!	!	!	!	!	!LO:TX:a:t=4.	!	!	!
!	!	!	!	!	!	!	!	!	!LO:N:vis=00	!	!	!
4E-\	.	.	4e-\	.	8bb-\L	.	8bb-\L]	.	0r	.	.	2ryy
.	.	.	.	.	16cc\L	.	16cc\L	.	.	.	.	.
.	.	.	.	.	16ee-\JJ	.	16ee-\JJ	.	.	.	.	.
4F\	n	.	4f\	.	8dd\L	.	8dd\L	.	.	.	.	.
!	!	!	!	!	!LO:SIC:v:s=8an	!	!	!	!	!	!	!
.	.	.	.	.	16a-\L	.	16an\L	.	.	.	.	.
.	.	.	.	.	16cc\JJ	.	(16cc\JJ	.	.	.	.	.
!	!	!	!	!	!LO:LB:g=original	!	!	!	!	!	!	!
=61	=61	=61	=61	=61	=61	=61	=61	=61	=61	=61	=61	=61
4G\	.	.	4g\	.	8b-/	.	8b-\)	.	.	.	.	2ryy
.	.	.	.	.	4bb-\	.	4bb-\	.	.	.	.	.
4D\	6	.	4d\	.	.	.	.	.	.	.	.	.
.	.	.	.	.	8b-/	.	8bb-\	.	.	.	.	.
=62	=62	=62	=62	=62	=62	=62	=62	=62	=62	=62	=62	=62
4E-\	.	.	4e-\	.	8bb-\L	.	8bb-\L	.	.	.	.	2ryy
.	.	.	.	.	16cc\L	.	16cc\L	.	.	.	.	.
.	.	.	.	.	16ee-\JJ	.	16ee-\JJ	.	.	.	.	.
4F\	n	.	4f\	.	8dd\L	.	8dd\L	.	.	.	.	.
.	.	.	.	.	16an\L	.	16an\L	.	.	.	.	.
.	.	.	.	.	16cc\JJ	.	(16cc\JJ	.	.	.	.	.
=63	=63	=63	=63	=63	=63	=63	=63	=63	=63	=63	=63	=63
!	!	!	!	!	!	!	!LO:TX:a:t=P:problem:mixed beam	!	!	!	!	!
4BB-/	.	.	4B-/	.	8b-/L	.	8b-\L)	.	.	.	.	2ryy
.	.	.	.	.	8f/J	.	8f/J	.	.	.	.	.
4r	.	.	4r	.	4B-/	.	4B-/	.	.	.	.	.
=64	=64	=64	=64	=64	=64	=64	=64	=64	=64	=64	=64	=64
!	!	!	!	!	!	!LO:DY:b	!	!	!LO:SIC:v:l:s=Quae	!	!	!
4B-\	-	.	4b-\	.	8r	p	8r	.	4b-\	Quem	.	2ryy
.	.	.	.	.	8b-\	.	8dd-X\	.	.	.	.	.
!	!	!	!	!	!	!	!	!	!LO:SIC:v:l:s=moe-	!	!	!
4A-\	.	.	4a-\	.	8r	.	8r	.	4b-\	me-	.	.
.	.	.	.	.	8b-\	.	8dd-\	.	.	.	.	.
=65	=65	=65	=65	=65	=65	=65	=65	=65	=65	=65	=65	=65
!	!	!	!	!	!LO:TX:a:t=P:problem:takt zapisany repetycją	!	!	!	!	!	!	!
4G\	6 5	.	4g\	.	8ryy	.	8r	.	4b-\	-re-	.	2ryy
.	.	.	.	.	8b-\yy	.	8dd-X\	.	.	.	.	.
4F\	-	.	4f\	.	8ryy	.	8r	.	4b-\	-bat	.	.
.	.	.	.	.	8b-\yy	.	8dd-\	.	.	.	.	.
=66	=66	=66	=66	=66	=66	=66	=66	=66	=66	=66	=66	=66
4En\	-7r	.	4en\	.	8r	.	8r	.	8dd-X\	et	.	2ryy
!	!	!	!	!	!	!	!LO:SIC:v:s=8dd-	!	!	!	!	!
.	.	.	.	.	8b-\	.	8dd\	.	4cc\	.	.	.
4C\	n	.	4c\	.	8r	.	8r	.	.	.	.	.
!	!	!	!LO:TX:a:t=P:problem:po tym takcie dwa skreślone takty	!	!	!	!	!	!	!	!	!
.	7	.	.	.	8b-\	.	8en/	.	8b-\	do-	.	.
!	!	!	!LO:LB:g=original	!	!	!	!	!	!LO:LB:g=original	!	!	!
=67	=67	=67	=67	=67	=67	=67	=67	=67	=67	=67	=67	=67
!	!	!	!	!	!	!	!	!	!LO:SIC:v:s=8a-	!	!	!
4F\	.	.	4f\	.	8r	.	8r	.	8a\	-le-	.	2ryy
.	.	.	.	.	8a-/	.	8f/	.	(4g\	-bat	.	.
4FF/	.	.	4F/	.	8r	.	8r	.	.	.	.	.
.	.	.	.	.	8f/	.	8a-/	.	8f\)	.	.	.
=68	=68	=68	=68	=68	=68	=68	=68	=68	=68	=68	=68	=68
4BB-/	-	.	4B-/	.	8r	.	8r	.	16g\LL	et	.	2ryy
.	.	.	.	.	.	.	.	.	16b-\JJ	.	.	.
.	.	.	.	.	8f/	.	8g/	.	4a-\	do-	.	.
4C/	n	.	4c/	.	8r	.	8r	.	.	.	.	.
.	.	.	.	.	8en/	.	8g/	.	8g\	.	.	.
=69	=69	=69	=69	=69	=69	=69	=69	=69	=69	=69	=69	=69
4F\	.	.	4f\	.	8r	.	8r	.	16a-\LL	-le-	.	2ryy
.	.	.	.	.	.	.	.	.	16g\JJ	.	.	.
.	.	.	.	.	4ff\	.	4ff\	.	8f\	-bat	.	.
4AA-/	6	.	4A-/	.	.	.	.	.	4r	.	.	.
.	.	.	.	.	8ff\	.	[8ff\	.	.	.	.	.
=70	=70	=70	=70	=70	=70	=70	=70	=70	=70	=70	=70	=70
!	!	!	!	!	!LO:TX:a:t=P:problem:mixed beam	!	!	!	!LO:TX:a:t=1	!	!	!
4BB-/	-	.	4B-/	.	8ff/L	.	8ff\L]	.	2r	.	.	2ryy
.	.	.	.	.	16g\L	.	16g/L	.	.	.	.	.
.	.	.	.	.	16b-\JJ	.	16b-/JJ	.	.	.	.	.
4C/	n	.	4c/	.	8a-/L	.	8a-/L	.	.	.	.	.
!	!	!	!	!	!LO:SIC:v:s=16en	!	!	!	!	!	!	!
.	.	.	.	.	16e-/L	.	16en/L	.	.	.	.	.
.	.	.	.	.	16g/JJ	.	16g/JJ	.	.	.	.	.
!	!	!	!	!	!	!	!LO:LB:g=original	!	!	!	!	!
=71	=71	=71	=71	=71	=71	=71	=71	=71	=71	=71	=71	=71
!	!	!	!	!	!	!	!	!	!LO:SIC:v:s=4a-	!	!	!
4F\	.	.	4f\	.	8f/L	.	8f/L	.	4a\	et	.	2ryy
.	.	.	.	.	8f/J	.	8a-/J	.	.	.	.	.
!	!	!	!	!	!	!	!	!	!LO:SIC:v:s=4a-	!	!	!
4E-\	.	.	4e-\	.	8r	.	8r	.	4a\	tre-	.	.
.	.	.	.	.	8f/	.	8a-/	.	.	.	.	.
=72	=72	=72	=72	=72	=72	=72	=72	=72	=72	=72	=72	=72
!	!	!	!	!	!	!	!	!	!LO:SIC:v:s=4a-	!	!	!
4D\	6 5	.	4d\	.	8r	.	8r	.	4a\	-me-	.	2ryy
.	.	.	.	.	8f/	.	8a-/	.	.	.	.	.
!	!	!	!	!	!	!	!	!	!LO:SIC:v:s=4a-	!	!	!
4C\	6 4	.	4c\	.	8r	.	8r	.	4a\	-bat	.	.
!	!	!	!	!	!LO:TX:b:t=Verti Cito	!	!	!	!	!	!	!
.	.	.	.	.	8f/	.	8a-/	.	.	.	.	.
!	!	!	!	!	!LO:PB:g=original	!	!	!	!	!	!	!
=73	=73	=73	=73	=73	=73	=73	=73	=73	=73	=73	=73	=73
4BB-/	7	.	4B-/	.	8r	.	8r	.	8cc\	cum	.	2ryy
.	.	.	.	.	8a-/	.	8cc\	.	(4b-\	vi-	.	.
4D\	6 5	.	4d\	.	8r	.	8r	.	.	.	.	.
!	!	!	!	!	!	!	!	!	!LO:SIC:v:s=8a-	!	!	!
.	.	.	.	.	8f/	.	8a-/	.	8a\)	.	.	.
=74	=74	=74	=74	=74	=74	=74	=74	=74	=74	=74	=74	=74
4E-\	.	.	4e-\	.	8r	.	8r	.	(8g\	-de-	.	2ryy
.	.	.	.	.	8B-/	.	8g/	.	4f\)	.	.	.
4GG/	6	.	4G/	.	8r	.	8r	.	.	.	.	.
.	.	.	.	.	8e-/	.	8g/	.	8e-\	-bat	.	.
=75	=75	=75	=75	=75	=75	=75	=75	=75	=75	=75	=75	=75
!	!	!	!	!	!	!	!	!	!LO:SIC:v:s=16a-	!	!	!
4AA-/	.	.	4A-/	.	8r	.	8r	.	16a\LL	cum	.	2ryy
.	.	.	.	.	.	.	.	.	16f\JJ	.	.	.
.	.	.	.	.	8e-/	.	8f/	.	4cc\	vi-	.	.
4BB-/	.	.	4B-/	.	8r	.	8r	.	.	.	.	.
.	.	.	.	.	8d/	.	8f/	.	16b-\LL	.	.	.
!	!	!	!	!	!	!	!	!	!LO:SIC:v:s=16a-	!	!	!
.	.	.	.	.	.	.	.	.	16a\JJ	.	.	.
=76	=76	=76	=76	=76	=76	=76	=76	=76	=76	=76	=76	=76
4E-\	.	.	4e-\	.	8r	.	8r	.	16g\LL	-de-	.	2ryy
.	.	.	.	.	.	.	.	.	16f\JJ	.	.	.
.	.	.	.	.	4ee-\	.	4ee-\	.	8e-\	-bat	.	.
4G\	6	.	4g\	.	.	.	.	.	4r	.	.	.
.	.	.	.	.	8ee-\	.	[8ee-\	.	.	.	.	.
!LO:LB:g=original	!	!	!	!	!	!	!	!	!	!	!	!
=77	=77	=77	=77	=77	=77	=77	=77	=77	=77	=77	=77	=77
!	!	!	!	!	!LO:TX:a:t=P:problem:mixed beam	!	!LO:TX:a:t=P:problem:mixed beam	!	!LO:TX:a:t=2	!	!	!
!	!	!	!	!	!	!	!	!	!LO:N:vis=0	!	!	!
4A-\	.	.	4a-\	.	8ee-\L	.	8ee-\L]	.	1r	.	.	2ryy
.	.	.	.	.	16f/L	.	16f/L	.	.	.	.	.
.	.	.	.	.	16a-/JJ	.	16a-/JJ	.	.	.	.	.
4B-\	.	.	4b-\	.	8g/L	.	8g/L	.	.	.	.	.
.	.	.	.	.	16d/L	.	16d/L	.	.	.	.	.
.	.	.	.	.	16f/JJ	.	16f/JJ	.	.	.	.	.
=78	=78	=78	=78	=78	=78	=78	=78	=78	=78	=78	=78	=78
4E-\	.	.	4e-\	.	8e-/L	.	8e-/L	.	.	.	.	2ryy
.	.	.	.	.	16B-/L	.	16B-/L	.	.	.	.	.
.	.	.	.	.	16e-/JJ	.	16e-/JJ	.	.	.	.	.
4G\	6	.	4g\	.	4G/	.	4G/	.	.	.	.	.
=79	=79	=79	=79	=79	=79	=79	=79	=79	=79	=79	=79	=79
4A-\	.	.	4a-\	.	8r	.	8r	.	8cc\	et	.	2ryy
!	!	!	!	!	!LO:SIC:v:s=8cc	!	!	!	!	!	!	!
.	.	.	.	.	8b-\	.	8cc\	.	4cc\	tre-	.	.
4F\	6	.	4f\	.	8r	.	8r	.	.	.	.	.
.	.	.	.	.	8dd\	.	8dd\	.	8dd\	.	.	.
=80	=80	=80	=80	=80	=80	=80	=80	=80	=80	=80	=80	=80
4G\	6	.	4g\	.	8r	.	8r	.	8ee-\	-me-	.	2ryy
.	.	.	.	.	8ee-\	.	8ee-\	.	4.e-\	-bat	.	.
4E-\	.	.	4e-\	.	8r	.	8r	.	.	.	.	.
.	.	.	.	.	8b-\	.	8b-\	.	.	.	.	.
!	!	!	!	!	!	!	!	!	!LO:LB:g=original	!	!	!
=81	=81	=81	=81	=81	=81	=81	=81	=81	=81	=81	=81	=81
4A-\	.	.	4a-\	.	8r	.	8r	.	8cc\	cum	.	2ryy
.	.	.	.	.	8cc\	.	8cc\	.	4cc\	vi-	.	.
4F\	6	.	4f\	.	8r	.	8r	.	.	.	.	.
.	.	.	.	.	8dd\	.	8dd\	.	8dd\	-de-	.	.
=82	=82	=82	=82	=82	=82	=82	=82	=82	=82	=82	=82	=82
4G\	6	.	4g\	.	8r	.	8r	.	8ee-\	.	.	2ryy
.	.	.	.	.	8ee-\	.	8ee-\	.	4.e-\	-bat	.	.
4E-\	.	.	4e-\	.	8r	.	8r	.	.	.	.	.
.	.	.	.	.	8b-\	.	8b-\	.	.	.	.	.
=83	=83	=83	=83	=83	=83	=83	=83	=83	=83	=83	=83	=83
!	!	!	!	!	!	!	!	!	!LO:SIC:v:s=4a-	!	!	!
4F\	6	.	4f\	.	8r	.	8r	.	4a\	na-	.	2ryy
.	.	.	.	.	8a-/	.	8a-/	.	.	.	.	.
!	!	!	!	!	!	!	!	!	!LO:SIC:v:s=4a-	!	!	!
4E-\	.	.	4e-\	.	8r	.	8r	.	4a\	-ti	.	.
.	.	.	.	.	8a-/	.	8a-/	.	.	.	.	.
=84	=84	=84	=84	=84	=84	=84	=84	=84	=84	=84	=84	=84
!	!	!	!	!	!LO:TX:a:t=P:problem:takt zapisany repetycją	!	!	!	!LO:SIC:v:s=4a-	!	!	!
4D\	6 5	.	4d\	.	8ryy	.	8r	.	4a\	poe-	.	2ryy
.	.	.	.	.	8a-/yy	.	8a-/	.	.	.	.	.
!	!	!	!	!	!	!	!	!	!LO:SIC:v:s=4a-	!	!	!
4C\	6 4	.	4c\	.	8ryy	.	8r	.	4a\	-nas	.	.
.	.	.	.	.	8a-/yy	.	8a-/	.	.	.	.	.
!	!	!	!	!	!	!	!LO:LB:g=original	!	!	!	!	!
=85	=85	=85	=85	=85	=85	=85	=85	=85	=85	=85	=85	=85
4BB-/	.	.	4B-/	.	8r	.	8r	.	4ff\	na-	.	2ryy
.	.	.	.	.	8aa-\	.	8aa-\	.	.	.	.	.
!	!	!	!	!	!	!	!	!	!LO:SIC:v:s=4a-	!	!	!
4D/	.	.	4d/	.	8r	.	8r	.	4a\	-ti	.	.
.	.	.	.	.	8aa-\	.	8aa-\	.	.	.	.	.
=86	=86	=86	=86	=86	=86	=86	=86	=86	=86	=86	=86	=86
4E-\	.	.	4e-\	.	8r	.	8r	.	8.g\L	po-	.	2ryy
.	.	.	.	.	8gg\	.	8gg\	.	.	.	.	.
.	.	.	.	.	.	.	.	.	32f\LL	.	.	.
.	.	.	.	.	.	.	.	.	32g\JJJ	.	.	.
4AA-/	.	.	4A-/	.	8r	.	8r	.	8.a-\L	-enas	.	.
.	.	.	.	.	8ff\	.	8ff\	.	.	.	.	.
.	.	.	.	.	.	.	.	.	32g\LL	.	.	.
.	.	.	.	.	.	.	.	.	32f\JJJ	.	.	.
!	!	!	!	!	!LO:LB:g=original	!	!	!	!	!	!	!
=87	=87	=87	=87	=87	=87	=87	=87	=87	=87	=87	=87	=87
4BB-/	.	.	4B-/	.	8r	.	8r	.	4.d\	in-	.	2ryy
.	.	.	.	.	8dd\	.	8ff\	.	.	.	.	.
4BB-/	.	.	4B-/	.	8r	.	8r	.	.	.	.	.
.	.	.	.	.	8dd\	.	8ff\	.	8e-\	-cli-	.	.
!	!	!	!LO:LB:g=original	!	!	!	!	!	!	!	!	!
=88	=88	=88	=88	=88	=88	=88	=88	=88	=88	=88	=88	=88
4E-\	.	.	4e-\	.	8r	.	8r	.	4e-\	-ti	.	2ryy
.	.	.	.	.	8ee-\	.	8ee-\	.	.	.	.	.
4G\	6	.	4g\	.	8r	.	8r	.	4r	.	.	.
.	.	.	.	.	8b-\	.	8b-\	.	.	.	.	.
=89	=89	=89	=89	=89	=89	=89	=89	=89	=89	=89	=89	=89
4A-\	.	.	4a-\	.	8r	.	8r	.	8cc\	et	.	2ryy
.	.	.	.	.	8cc\	.	8cc\	.	4cc\	tre-	.	.
4F\	6	.	4f\	.	8r	.	8r	.	.	.	.	.
.	.	.	.	.	8dd\	.	8dd\	.	8dd\	.	.	.
=90	=90	=90	=90	=90	=90	=90	=90	=90	=90	=90	=90	=90
!	!	!	!	!	!LO:TX:a:t=P:problem:takty 90-91 zapisane repetycją	!	!	!	!	!	!	!
4G\	6	.	4g\	.	8ryy	.	8r	.	8ee-\	-me-	.	2ryy
.	.	.	.	.	8ee-\yy	.	8ee-\	.	4.e-\	-bat	.	.
4E-\	.	.	4e-\	.	8ryy	.	8r	.	.	.	.	.
.	.	.	.	.	8b-\yy	.	8b-\	.	.	.	.	.
=91	=91	=91	=91	=91	=91	=91	=91	=91	=91	=91	=91	=91
4A-\	.	.	4a-\	.	8ryy	.	8r	.	8cc\	cum	.	2ryy
.	.	.	.	.	8cc\yy	.	8cc\	.	4cc\	vi-	.	.
4F\	6	.	4f\	.	8ryy	.	8r	.	.	.	.	.
.	.	.	.	.	8dd\yy	.	8dd\	.	8dd\	.	.	.
=92	=92	=92	=92	=92	=92	=92	=92	=92	=92	=92	=92	=92
4G\	.	.	4g\	.	8r	.	8r	.	8ee-\	-de-	.	2ryy
.	.	.	.	.	8ee-\	.	8ee-\	.	4.e-\	-bat	.	.
4E-\	6	.	4e-\	.	8r	.	8r	.	.	.	.	.
.	.	.	.	.	8b-\	.	8b-\	.	.	.	.	.
!	!	!	!	!	!	!	!	!	!LO:LB:g=original	!	!	!
=93	=93	=93	=93	=93	=93	=93	=93	=93	=93	=93	=93	=93
!	!	!	!	!	!	!	!	!	!LO:SIC:v:s=4a-	!	!	!
4F\	6	.	4f\	.	8r	.	8r	.	4a\	na-	.	2ryy
.	.	.	.	.	8f/	.	8a-/	.	.	.	.	.
!	!	!	!	!	!	!	!	!	!LO:SIC:v:s=4a-	!	!	!
4E-\	.	.	4e-\	.	8r	.	8r	.	4a\	-ti	.	.
.	.	.	.	.	8f/	.	8a-/	.	.	.	.	.
=94	=94	=94	=94	=94	=94	=94	=94	=94	=94	=94	=94	=94
!	!	!	!	!	!	!	!	!	!LO:SIC:v:s=4a-	!	!	!
4D\	6 5	.	4d\	.	8r	.	8r	.	4a\	poe-	.	2ryy
.	.	.	.	.	8f/	.	8a-/	.	.	.	.	.
!	!	!	!	!	!	!	!	!	!LO:SIC:v:s=4a-	!	!	!
4C\	.	.	4c\	.	8r	.	8r	.	4a\	-nas	.	.
.	.	.	.	.	8f/	.	8a-/	.	.	.	.	.
=95	=95	=95	=95	=95	=95	=95	=95	=95	=95	=95	=95	=95
4BB-/	.	.	4B-/	.	8r	.	8r	.	4ff\	na-	.	2ryy
.	.	.	.	.	8ff\	.	8aa-\	.	.	.	.	.
!	!	!	!	!	!	!	!	!	!LO:SIC:v:s=4a-	!	!	!
4D/	.	.	4d/	.	8r	.	8r	.	4a\	-ti	.	.
.	.	.	.	.	8ff\	.	8aa-\	.	.	.	.	.
!LO:LB:g=original	!	!	!	!	!	!	!	!	!	!	!	!
=96	=96	=96	=96	=96	=96	=96	=96	=96	=96	=96	=96	=96
4E-\	.	.	4e-\	.	8r	.	8r	.	8.g\L	poe-	.	2ryy
!	!	!	!	!	!LO:SIC:v:s=ee-&colon;t=lub gg	!	!	!	!	!	!	!
.	.	.	.	.	8ff\	.	8gg\	.	.	.	.	.
.	.	.	.	.	.	.	.	.	32f\LL	.	.	.
.	.	.	.	.	.	.	.	.	32g\JJJ	.	.	.
!	!	!	!	!	!	!	!	!	!LO:SIC:v:s=8.a-	!	!	!
4AA-/	.	.	4A-/	.	8r	.	8r	.	8.a\L	-nas	.	.
.	.	.	.	.	8ff\	.	8ff\	.	.	.	.	.
.	.	.	.	.	.	.	.	.	32g\LL	.	.	.
.	.	.	.	.	.	.	.	.	32f\JJJ	.	.	.
=97	=97	=97	=97	=97	=97	=97	=97	=97	=97	=97	=97	=97
!	!	!	!	!	!	!	!	!	!	!	!LO:DY:a	!
4BB-/	.	.	4B-/	.	8r	.	8r	.	4.d\	in-	f	2ryy
.	.	.	.	.	8dd\	.	8ff\	.	.	.	.	.
4BB-/	.	.	4B-/	.	8r	.	8r	.	.	.	.	.
.	.	.	.	.	8dd\	.	8ff\	.	8e-\	-cli-	.	.
=98	=98	=98	=98	=98	=98	=98	=98	=98	=98	=98	=98	=98
!	!	!	!	!	!LO:TX:a:t=P:problem:mixed beam	!	!LO:TX:a:t=P:problem:mixed beam	!	!	!	!	!
4E-\	.	.	4e-\	.	8e-/L	.	16ee-\LL	.	4e-\	-ti	.	2ryy
.	.	.	.	.	.	.	16e-/JJ	.	.	.	.	.
.	.	.	.	.	8ee-\J	.	4ee-\	.	.	.	.	.
4G\	6	.	4g\	.	8r	.	.	.	4r	.	.	.
!	!	!	!	!	!	!	!LO:TX:a:t=P:problem:brak początku ligatury	!	!	!	!	!
.	.	.	.	.	8ee-\	.	[8ee-\	.	.	.	.	.
=99	=99	=99	=99	=99	=99	=99	=99	=99	=99	=99	=99	=99
!	!	!	!	!	!LO:TX:a:t=P:problem:mixed beam	!	!LO:TX:a:t=P:problem:mixed beam	!	!LO:TX:a:t=6	!	!	!
!	!	!	!	!	!	!	!	!	!LO:N:vis=00	!	!	!
4A-\	.	.	4a-\	.	8ee-\L	.	8ee-\L]	.	0r	.	.	2ryy
.	.	.	.	.	16f/L	.	16f/L	.	.	.	.	.
.	.	.	.	.	16a-/JJ	.	16a-/JJ	.	.	.	.	.
4B-\	.	.	4b-\	.	8g/L	.	8g/L	.	.	.	.	.
.	.	.	.	.	16d/L	.	16d/L	.	.	.	.	.
.	.	.	.	.	16f/JJ	.	16f/JJ	.	.	.	.	.
=100	=100	=100	=100	=100	=100	=100	=100	=100	=100	=100	=100	=100
4c\	.	.	4cc\	.	8e-/	.	8e-/	.	.	.	.	2ryy
.	.	.	.	.	8r	.	8r	.	.	.	.	.
4G\	6	.	4g\	.	4ee-\	.	[4ee-\	.	.	.	.	.
=101	=101	=101	=101	=101	=101	=101	=101	=101	=101	=101	=101	=101
!	!	!	!	!	!LO:TX:a:t=P:problem:mixed beam	!	!LO:TX:a:t=P:problem:mixed beam	!	!	!	!	!
4A-\	.	.	4a-\	.	8ee-\L	.	8ee-\L]	.	.	.	.	2ryy
.	.	.	.	.	16f/L	.	16f/L	.	.	.	.	.
.	.	.	.	.	16a-/JJ	.	16a-/JJ	.	.	.	.	.
4B-\	.	.	4b-\	.	8g/L	.	8g/L	.	.	.	.	.
.	.	.	.	.	16d/L	.	16d/L	.	.	.	.	.
.	.	.	.	.	16f/JJ	.	16f/JJ	.	.	.	.	.
!	!	!	!	!	!LO:LB:g=original	!	!	!	!	!	!	!
=102	=102	=102	=102	=102	=102	=102	=102	=102	=102	=102	=102	=102
!	!	!	!	!	!LO:TX:a:t=P:problem:mixed beam	!	!LO:TX:a:t=P:problem:mixed beam	!	!	!	!	!
4E-\	.	.	4e-\	.	8e-/L	.	8e-/L	.	.	.	.	2ryy
.	.	.	.	.	16ee-\L	.	16ee-\L	.	.	.	.	.
.	.	.	.	.	16cc\JJ	.	(16cc\JJ	.	.	.	.	.
4r	.	.	4r	.	8an/L	.	8an/L)	.	.	.	.	.
.	.	.	.	.	16a-X/L	.	16a-X/L	.	.	.	.	.
.	.	.	.	.	16f/JJ	.	16f/JJ	.	.	.	.	.
=103	=103	=103	=103	=103	=103	=103	=103	=103	=103	=103	=103	=103
!	!	!	!	!	!	!	!	!	!LO:N:vis=0	!	!	!
8r	.	.	8r	.	8d/L	.	8d/L	.	1r	.	.	2ryy
!LO:TX:a:t=P:problem:mixed beam	!	!	!LO:TX:a:t=P:problem:mixed beam	!	!	!	!	!	!	!	!	!
8E-\L	.	.	8e-\L	.	16e-/L	.	16e-/L	.	.	.	.	.
.	.	.	.	.	16c/JJ	.	16c/JJ	.	.	.	.	.
8AA-/	6 5	.	8A-/	.	8A-/L	.	8A-/L	.	.	.	.	.
8BB-/J	.	.	8B-/J	.	8B-/J	.	8B-/J	.	.	.	.	.
=104	=104	=104	=104	=104	=104	=104	=104	=104	=104	=104	=104	=104
4EE-/	.	.	4E-/	.	4e-/	.	4e-/	.	.	.	.	2ryy
4r	.	.	4r	.	4r	.	4r	.	.	.	.	.
==	==	==	==	==	==	==	==	==	==	==	==	==
*-	*-	*-	*-	*-	*-	*-	*-	*-	*-	*-	*-	*-
!!!system-decoration: [g1][g2]s6
!!!ENC: Zofia Niedbalska
!!!END: 2020-11-27
!!!ENC: Andrzej Borzym
!!!END: 2020-06-09
